X:5888
T:Scottish à Fleuret
O:england
M:2/4
L:1/8
K:G
dB gf/e/|dB d2|cA f>e|d/c/e/d/ B2|\
dB gf/e/|dB d2|cA f>e|d/f/a/f/ g2:|
|:d/B/d/g/ ba|c/A/c/e/ ag|d/B/d/g/ f>e|d/c/e/d/ B2|\
d/B/d/g/ ba|c/A/c/e/ ag|d/B/d/g/ f>e|d/f/a/f/ g2:|


